X: 719
T: Aherne's Egg
R: jig
M: 6/8
K: Emixolydian
B|GEB EDB,|DEF EGB|~e3 geB|{f}edB AFA|
Bec- cde|cAB GEF|=GDB, ^G/A/BG|AFB E2B|
EBE {B}EDB,|DEF EGB|~e3 geB|f/e/dB AFA|
Bec d2e|cAB GEF|=GDB, ^G/A/BG|AFB E2z||
|:ege d2B|cAE AFD|B,EG ~A3|FBF ABc|
BGB ~e2c|dAF DFA|G/A/BG AFB|1 EBE {B}EGB:|2 EBE {B}E2||

